X: 292
T:Poll Ha'penny
T:Garden of Butterflies, The
N: page 97
N: heptatonic
R:set dance
I:speed 250
E:7
M:C|
K:Amix
AB|"A7"=cAAG A2 (3AB^c|"G"(3dcB (3AGF G2 (3Bcd|"A7"edcA "G"dcAG|\
"A7"A2AG A2de|"D"~f3d "A7"~e3c|
"G"dA (3Bcd "A7"efge|agfd =cAGB|A2AG A2:|\
ef|"G"g2gf gfed|eggf gfed|
"A7"eaag ~a3g|eaag ~a3g|"D"~f3d "A7"~e3c|\
"D"dA (3Bcd efge|agfd =cAGB|"A7"A2AG A2:|
